X:20
T:Coleman’s March
C: Traditional
R: March
S: JamBuddy 2005
M:4/4
K:D
Q:200
|:"D"F8|"G"G6 "D"FG|A2AB AGF2|"A"E6FG|
|"D"A2d2"A"c4|"G"B2BA "D"FED2|"Em"E2EF "A7"GFE2|1"D"D4ABAG:|2"D"D4DFAc||
|:"D"d8|"A"c8|"G"B2Bc dcB2 |"D"A6 FG|"D"A2d2"A"c4|
|"G"B2 Bc "D"BAF2|"Em"E2EF "A7"GF E2|1"D"D4DFAc:|2"D"D8|]


